learning-site/svg (20).svg

<svg xmlns="http://www.w3.org/2000/svg" xmlns:xlink="http://www.w3.org/1999/xlink" viewBox="0 0 100 100" version="1.1"><!-- Generator: Sketch 51.3 (57544) - http://www.bohemiancoding.com/sketch --><title>secure-your-azure-sql-database</title><desc>Created with Sketch.</desc><defs><filter x="-1.4%" y="-1.4%" width="102.9%" height="105.8%" filterUnits="objectBoundingBox" id="filter-1"><feOffset dx="0" dy="2" in="SourceAlpha" result="shadowOffsetOuter1"></feOffset><feColorMatrix values="0 0 0 0 0   0 0 0 0 0   0 0 0 0 0  0 0 0 0.0996376812 0" type="matrix" in="shadowOffsetOuter1" result="shadowMatrixOuter1"></feColorMatrix><feMerge><feMergeNode in="shadowMatrixOuter1"></feMergeNode><feMergeNode in="SourceGraphic"></feMergeNode></feMerge></filter><filter x="-2.1%" y="-6.5%" width="104.3%" height="113.0%" filterUnits="objectBoundingBox" id="filter-2"><feOffset dx="0" dy="2" in="SourceAlpha" result="shadowOffsetOuter1"></feOffset><feColorMatrix values="0 0 0 0 0   0 0 0 0 0   0 0 0 0 0  0 0 0 0.099071558 0" type="matrix" in="shadowOffsetOuter1" result="shadowMatrixOuter1"></feColorMatrix><feMerge><feMergeNode in="shadowMatrixOuter1"></feMergeNode><feMergeNode in="SourceGraphic"></feMergeNode></feMerge></filter></defs><g id="Badges-FINAL" stroke="none" stroke-width="1" fill="none" fill-rule="evenodd"><g id="Secure-your-web-data" transform="translate(-577.000000, -523.000000)"><g id="secure-your-azure-sql-database" transform="translate(577.000000, 523.000000)"><rect id="BG" fill="#55A2FF" fill-rule="nonzero" x="2" y="2" width="96" height="96" rx="48"></rect><g id="Data-Float" transform="translate(15.000000, 15.000000)"><g id="Lower" transform="translate(16.653038, 32.826721)"><path d="M18.1948814,13.0192103 C8.49653902,13.0192103 0.633374165,10.0902111 0.633374165,6.47477306 L0.633374165,15.2006894 C0.633374165,18.8161274 8.49653902,21.7451267 18.1948814,21.7451267 C27.8939555,21.7451267 35.7563886,18.8161274 35.7563886,15.2006894 L35.7563886,6.47477306 C35.7563886,10.0902111 27.8939555,13.0192103 18.1948814,13.0192103" id="Fill-101" fill="#E1E4E1"></path><path d="M18.1948814,15.9038529 L18.1948814,18.8103102 C18.1948814,19.6356364 17.503397,20.2929888 16.6736158,20.266811 C7.68724623,19.979583 0.633374165,17.170565 0.633374165,13.74637 L0.633374165,15.2006894 C0.633374165,18.8161274 8.49653902,21.7451267 18.1948814,21.7451267 C27.8939555,21.7451267 35.7563886,18.8161274 35.7563886,15.2006894 L35.7563886,7.92909245 C35.7563886,11.3678307 28.6447099,14.1855745 19.6041923,14.4524421 C18.8183149,14.4757112 18.1948814,15.1221562 18.1948814,15.9038529" id="Fill-106" fill="#D3DAD8"></path><path d="M35.6619675,6.55015729 C35.6619675,10.1687553 27.8418075,13.1003146 18.1948814,13.1003146 C8.54868306,13.1003146 0.727795255,10.1687553 0.727795255,6.55015729 C0.727795255,2.93155929 8.54868306,0 18.1948814,0 C27.8418075,0 35.6619675,2.93155929 35.6619675,6.55015729" id="Fill-100" stroke="#E1E4E1" stroke-width="0.25" fill="#BAC0C2"></path></g><g id="Float" filter="url(#filter-1)" transform="translate(0.394690, 0.511580)"><path d="M34.2758602,61.5026756 C38.3482609,61.5026756 42.1700193,61.6151432 45.0363381,61.8207984 L53.6599303,62.4356216 C56.2981004,62.6144988 58.6845572,61.7233264 60.3362252,59.9516929 C61.8625721,58.3118072 62.6080721,56.0763784 62.4356216,53.6599303 L61.8197273,45.0363381 C61.3955635,39.1034009 61.3955635,29.4483195 61.8197273,23.5153824 L62.4356216,14.8917901 C62.6080721,12.4731998 61.8625721,10.2399132 60.3362252,8.60002755 C58.6856283,6.82625179 56.2991715,5.9340083 53.6599303,6.11609881 L45.0363381,6.73092205 C42.1700193,6.93657721 38.3482609,7.050116 34.2758602,7.050116 C30.2034596,7.050116 26.3817012,6.93657721 23.5153824,6.73092205 L14.8917901,6.11609881 C12.2482644,5.9340083 9.86609214,6.82732291 8.21549525,8.60002755 C6.68914835,10.2399132 5.94364839,12.4742709 6.11609881,14.8917901 L6.73199317,23.5153824 C7.15615694,29.4483195 7.15615694,39.1034009 6.73199317,45.0363381 L6.11609881,53.6599303 C5.94364839,56.0774496 6.68914835,58.3118072 8.21549525,59.9516929 C9.86609214,61.7243975 12.2450511,62.6144988 14.8917901,62.4356216 L23.5153824,61.8207984 C26.3817012,61.6151432 30.2034596,61.5026756 34.2758602,61.5026756 Z M54.3454475,64.6024987 C54.0690984,64.6024987 53.7895359,64.5928586 53.50676,64.5714362 L44.8831678,63.9566129 C42.0661206,63.7552422 38.2989893,63.6449168 34.2758602,63.6449168 C30.2527311,63.6449168 26.4855999,63.7552422 23.6685526,63.9566129 L15.0449604,64.5714362 C11.7373399,64.818865 8.7424866,63.6609836 6.64737464,61.4116303 C4.71078854,59.3325852 3.7639179,56.5241069 3.97921315,53.50676 L4.59510751,44.8831678 C5.01284456,39.0337781 5.01284456,29.5179424 4.59510751,23.6685526 L3.97921315,15.0449604 C3.7639179,12.0265425 4.71078854,9.21913528 6.64737464,7.14116125 C8.74355772,4.88966568 11.738411,3.73606876 15.0449604,3.98028427 L23.6685526,4.59510751 C26.4855999,4.79540707 30.2527311,4.90787474 34.2758602,4.90787474 C38.2989893,4.90787474 42.0661206,4.79540707 44.8831678,4.59510751 L53.50676,3.98028427 C56.8068827,3.7328554 59.8081627,4.88966568 61.9043458,7.14009013 C63.8409319,9.21913528 64.7878025,12.0265425 64.5725073,15.0449604 L63.9566129,23.6685526 C63.5388759,29.5179424 63.5388759,39.0337781 63.9566129,44.8831678 L64.5725073,53.50676 C64.7878025,56.5241069 63.8409319,59.3325852 61.9032747,61.4105592 C59.988111,63.469253 57.3028116,64.6024987 54.3454475,64.6024987 Z" id="Fill-1028" fill="#DADADA"></path><path d="M67.4805998,36.4181015 L65.3383585,36.4181015 L65.3383585,32.133619 L67.4805998,32.133619 C68.0718584,32.133619 68.5517204,32.613481 68.5517204,33.2047396 L68.5517204,35.3469809 C68.5517204,35.9382394 68.0718584,36.4181015 67.4805998,36.4181015" id="Fill-1029" fill="#30404D"></path><path d="M3.2133619,36.4181015 L1.07112063,36.4181015 C0.479862043,36.4181015 0,35.9382394 0,35.3469809 L0,33.2047396 C0,32.613481 0.479862043,32.133619 1.07112063,32.133619 L3.2133619,32.133619 L3.2133619,36.4181015" id="Fill-1030" fill="#30404D"></path><path d="M32.133619,67.4805998 L32.133619,65.3383585 L36.4181015,65.3383585 L36.4181015,67.4805998 C36.4181015,68.0718584 35.9382394,68.5517204 35.3469809,68.5517204 L33.2047396,68.5517204 C32.613481,68.5517204 32.133619,68.0718584 32.133619,67.4805998" id="Fill-1031" fill="#30404D"></path><path d="M32.133619,3.2133619 L32.133619,1.07112063 C32.133619,0.479862043 32.613481,0 33.2047396,0 L35.3469809,0 C35.9382394,0 36.4181015,0.479862043 36.4181015,1.07112063 L36.4181015,3.2133619 L32.133619,3.2133619" id="Fill-1032" fill="#30404D"></path><path d="M34.2758602,51.5886115 C24.7139125,51.5886115 16.9706607,43.8377863 16.9652511,34.2780025 C16.9706607,24.7149729 24.7139125,16.9695572 34.2758602,16.9673934 C43.8388898,16.9652295 51.5864693,24.7149729 51.5864693,34.2758386 C51.5864693,43.8226395 43.8388898,51.5864477 34.2758602,51.5886115 Z M34.2758602,2.21693294 C16.5707833,2.21693294 2.21693294,16.5707833 2.21693294,34.2758602 C2.21693294,51.9809371 16.5707833,66.3347875 34.2758602,66.3347875 C51.9809371,66.3347875 66.3347875,51.9809371 66.3347875,34.2758602 C66.3347875,16.5707833 51.9809371,2.21693294 34.2758602,2.21693294 Z" id="Fill-1033" fill="#F5F5F5"></path><path d="M34.2758602,2.14224126 L34.2758602,9.64008569 C47.8823056,9.64008569 58.9116348,20.6694148 58.9116348,34.2758602 C58.9116348,47.8823056 47.8823056,58.9116348 34.2758602,58.9116348 L34.2758602,66.4094792 C52.023258,66.4094792 66.4094792,52.023258 66.4094792,34.2758602 C66.4094792,16.5284625 52.023258,2.14224126 34.2758602,2.14224126" id="Fill-1034" fill="#E1E7E8"></path><path d="M34.2758602,51.4137903 C24.8103672,51.4137903 17.1379301,43.7413532 17.1379301,34.2758602 C17.1379301,24.8103672 24.8103672,17.1379301 34.2758602,17.1379301 L34.2758602,9.64008569 C20.6694148,9.64008569 9.64008569,20.6694148 9.64008569,34.2758602 C9.64008569,47.8823056 20.6694148,58.9116348 34.2758602,58.9116348 L34.2758602,51.4137903" id="Fill-1037" fill="#E1E7E8"></path><path d="M42.8297652,19.3980937 C40.3994069,17.9949256 37.768072,17.2697644 35.1463249,17.1363932 L40.735722,2.76590731 C44.0239826,3.4436406 47.2609056,4.64088376 50.3276096,6.41144617 C53.3943137,8.18200857 56.0496182,10.3866445 58.2806827,12.8954951 L48.6291043,24.9231531 C47.2014082,22.7173405 45.2582683,20.8001906 42.8297652,19.3980937 Z" id="Fill-1035" fill="#DF5142"></path><path d="M47.8268828,5.11730652 C47.9561471,5.17833224 48.085268,5.24174877 48.2149243,5.30423767 C48.9261791,5.64685553 49.632824,6.01031149 50.3276096,6.41144617 C51.0223953,6.81258084 51.6904798,7.24282527 52.342823,7.68748108 C52.4617682,7.76852234 52.5812489,7.84863598 52.6987309,7.9300693 C53.3503565,8.38667908 53.9846342,8.86048309 54.5921056,9.35715208 C54.618184,9.37839254 54.6418715,9.3994895 54.6679499,9.42072996 C55.9735405,10.4948503 57.1797579,11.6575428 58.2806827,12.8954951 L53.4990529,18.8531892 C51.6360143,16.5209506 49.3197977,14.4873506 46.5786874,12.9047699 C43.8375772,11.3221892 40.9183197,10.3330867 37.9670225,9.88576726 L40.735722,2.76590731 C42.3582826,3.10036004 43.9683125,3.56362874 45.5513233,4.15724317 C45.5818297,4.16867189 45.6128716,4.17917299 45.6443055,4.19113728 C46.3781692,4.4688885 47.1056343,4.78128703 47.8268828,5.11730652 Z" id="Fill-1036" fill="#C2423D"></path><path d="M42.9564159,49.0896687 C45.2749246,47.7498403 47.1448033,45.9393025 48.5532708,43.860853 L57.7743041,56.2867419 C55.6796041,58.509076 53.2334029,60.4717774 50.4524051,62.0773873 C47.6714073,63.6829971 44.7485574,64.8201188 41.7766096,65.5230151 L35.6254552,51.3234939 C38.1306067,51.1424145 40.6349809,50.428713 42.9564159,49.0896687 Z" id="Fill-1038" fill="#DF5142"></path><path d="M42.9564159,49.0896687 C45.2749246,47.7498403 47.1448033,45.9393025 48.5532708,43.860853 L53.2146413,50.1415276 C51.4244025,52.2635272 49.2451553,54.1166283 46.7034829,55.5840635 C44.1618105,57.0514988 41.4673543,58.0122316 38.7345293,58.5016241 L35.6254552,51.3234939 C38.1306067,51.1424145 40.6349809,50.428713 42.9564159,49.0896687 Z" id="Fill-1039" fill="#C2423D"></path><path d="M17.2049109,34.3080137 C17.205982,31.6280699 17.8400854,29.1023675 18.9358419,26.8423029 L3.56311855,25.0695983 C2.68587075,27.9948287 2.20922207,31.0946518 2.20922207,34.3058715 C2.20922207,37.5170911 2.68587075,40.6169143 3.56311855,43.5421447 L18.9347707,41.7694401 C17.8390143,39.5104466 17.205982,36.9858153 17.2049109,34.3080137" id="Fill-1038" fill="#DF5142"></path><path d="M17.2049109,34.3080137 C17.205982,31.6280699 17.8400854,29.1023675 18.9358419,26.8423029 L11.1648617,25.945775 C10.2222755,28.5571671 9.70706649,31.371001 9.70706649,34.3058715 C9.70706649,37.240742 10.2222755,40.0545759 11.1648617,42.665968 L18.9347707,41.7694401 C17.8390143,39.5104466 17.205982,36.9858153 17.2049109,34.3080137" id="Fill-1039" fill="#C2423D"></path></g><g id="Database" filter="url(#filter-2)" transform="translate(11.388978, 8.081682)"><path d="M14.8856983,4.35148524 L31.7760838,4.35148524 C39.8000314,4.35148524 46.3047261,10.85618 46.3047261,18.8801276 C46.3047261,20.9505282 45.8622197,22.9970175 45.0068579,24.8824658 L40.799797,34.155964 C37.6899528,41.0109004 30.85826,45.4134463 23.330891,45.4134463 C15.8035221,45.4134463 8.97182924,41.0109004 5.86198503,34.155964 L1.65492415,24.8824658 C-1.66007569,17.575311 1.57620533,8.96435327 8.88336012,5.64935343 C10.7688084,4.79399169 12.8152977,4.35148524 14.8856983,4.35148524 Z M23.2818971,43.8491789 C32.7796825,43.8470151 40.4744037,36.0832069 40.4744037,26.536406 C40.4744037,16.9755402 32.7796825,9.22579694 23.2818971,9.22796077 C13.7851863,9.23012459 6.09476321,16.9755402 6.08939056,26.5385699 C6.09476321,36.0983537 13.7851863,43.8491789 23.2818971,43.8491789 Z" id="Combined-Shape" fill="#000000" fill-rule="nonzero" opacity="0.299330357"></path><g id="Mid" transform="translate(5.264061, 12.372519)"><path d="M18.1948814,13.0300148 C8.49653902,13.0300148 0.633374165,10.1010156 0.633374165,6.48557754 L0.633374165,15.2114939 C0.633374165,18.8269319 8.49653902,21.7559312 18.1948814,21.7559312 C27.8939555,21.7559312 35.7563886,18.8269319 35.7563886,15.2114939 L35.7563886,6.48557754 C35.7563886,10.1010156 27.8939555,13.0300148 18.1948814,13.0300148" id="Fill-102" fill="#E1E4E1"></path><path d="M18.1948814,15.9146573 L18.1948814,18.8211146 C18.1948814,19.6464409 17.503397,20.3037933 16.6736158,20.2776155 C7.68724623,19.9903874 0.633374165,17.1813695 0.633374165,13.7571745 L0.633374165,15.2114939 C0.633374165,18.8269319 8.49653902,21.7559312 18.1948814,21.7559312 C27.8939555,21.7559312 35.7563886,18.8269319 35.7563886,15.2114939 L35.7563886,7.93989693 C35.7563886,11.3786351 28.6447099,14.196379 19.6041923,14.4632466 C18.8183149,14.4865157 18.1948814,15.1329607 18.1948814,15.9146573" id="Fill-107" fill="#D3DAD8"></path><path d="M35.6619675,6.55015729 C35.6619675,10.1687553 27.8418075,13.1003146 18.1948814,13.1003146 C8.54868306,13.1003146 0.727795255,10.1687553 0.727795255,6.55015729 C0.727795255,2.93155929 8.54868306,0 18.1948814,0 C27.8418075,0 35.6619675,2.93155929 35.6619675,6.55015729" id="Fill-103" stroke="#E1E4E1" stroke-width="0.25" fill="#BAC0C2"></path></g><g id="Top" transform="translate(5.264061, 0.000000)"><path d="M18.1948814,13.0408193 C8.49653902,13.0408193 0.633374165,10.11182 0.633374165,6.49638202 L0.633374165,15.2222984 C0.633374165,18.8377364 8.49653902,21.7667357 18.1948814,21.7667357 C27.8939555,21.7667357 35.7563886,18.8377364 35.7563886,15.2222984 L35.7563886,6.49638202 C35.7563886,10.11182 27.8939555,13.0408193 18.1948814,13.0408193" id="Fill-104" fill="#E1E4E1"></path><path d="M18.1948814,15.9254618 L18.1948814,18.8319191 C18.1948814,19.6572454 17.503397,20.3145977 16.6736158,20.28842 C7.68724623,20.0011919 0.633374165,17.192174 0.633374165,13.767979 L0.633374165,15.2222984 C0.633374165,18.8377364 8.49653902,21.7667357 18.1948814,21.7667357 C27.8939555,21.7667357 35.7563886,18.8377364 35.7563886,15.2222984 L35.7563886,7.95070141 C35.7563886,11.3894396 28.6447099,14.2071834 19.6041923,14.4740511 C18.8183149,14.4973202 18.1948814,15.1437651 18.1948814,15.9254618" id="Fill-108" fill="#D3DAD8"></path><path d="M34.6710792,6.55015729 C34.6710792,10.1687553 27.2945481,13.1003146 18.1948814,13.1003146 C9.09590114,13.1003146 1.71868358,10.1687553 1.71868358,6.55015729 C1.71868358,2.93155929 9.09590114,0 18.1948814,0 C27.2945481,0 34.6710792,2.93155929 34.6710792,6.55015729" id="Fill-105" stroke="#E1E4E1" stroke-width="2.25" fill="#C4CBCD"></path></g></g></g><g id="Azure-Border" stroke="#0078D4" stroke-width="4"><rect x="2" y="2" width="96" height="96" rx="48"></rect></g></g></g></g></svg>

<svg xmlns="http://www.w3.org/2000/svg" viewBox="0 0 100 100"><defs><filter x="-1.4%" y="-1.4%" width="102.9%" height="105.8%" filterUnits="objectBoundingBox" id="a"><feOffset dy="2" in="SourceAlpha" result="shadowOffsetOuter1"/><feColorMatrix values="0 0 0 0 0 0 0 0 0 0 0 0 0 0 0 0 0 0 0.0996376812 0" in="shadowOffsetOuter1" result="shadowMatrixOuter1"/><feMerge><feMergeNode in="shadowMatrixOuter1"/><feMergeNode in="SourceGraphic"/></feMerge></filter><filter x="-2.1%" y="-6.5%" width="104.3%" height="113%" filterUnits="objectBoundingBox" id="b"><feOffset dy="2" in="SourceAlpha" result="shadowOffsetOuter1"/><feColorMatrix values="0 0 0 0 0 0 0 0 0 0 0 0 0 0 0 0 0 0 0.099071558 0" in="shadowOffsetOuter1" result="shadowMatrixOuter1"/><feMerge><feMergeNode in="shadowMatrixOuter1"/><feMergeNode in="SourceGraphic"/></feMerge></filter></defs><g fill="none" fill-rule="evenodd"><rect fill="#55A2FF" fill-rule="nonzero" x="2" y="2" width="96" height="96" rx="48"/><path d="M49.848 60.846c-9.698 0-17.562-2.93-17.562-6.545v8.726c0 3.616 7.864 6.545 17.562 6.545 9.699 0 17.561-2.93 17.561-6.545v-8.726c0 3.616-7.862 6.545-17.561 6.545" fill="#E1E4E1"/><path d="M49.848 63.73v2.907c0 .825-.692 1.483-1.521 1.457-8.987-.288-16.04-3.097-16.04-6.52v1.453c0 3.616 7.863 6.545 17.56 6.545 9.7 0 17.562-2.93 17.562-6.545v-7.271c0 3.439-7.111 6.256-16.152 6.523-.786.023-1.41.67-1.41 1.452" fill="#D3DAD8"/><path d="M67.315 54.377c0 3.618-7.82 6.55-17.467 6.55-9.646 0-17.467-2.932-17.467-6.55 0-3.619 7.82-6.55 17.467-6.55 9.647 0 17.467 2.931 17.467 6.55" stroke="#E1E4E1" stroke-width=".25" fill="#BAC0C2"/><g filter="url(#a)" transform="translate(15.395 15.512)"><path d="M34.276 61.503c4.072 0 7.894.112 10.76.318l8.624.615c2.638.178 5.025-.713 6.676-2.484 1.527-1.64 2.272-3.876 2.1-6.292l-.616-8.624c-.424-5.933-.424-15.588 0-21.52l.616-8.624c.172-2.419-.573-4.652-2.1-6.292-1.65-1.774-4.037-2.666-6.676-2.484l-8.624.615c-2.866.206-6.688.32-10.76.32-4.073 0-7.894-.114-10.76-.32l-8.624-.615c-2.644-.182-5.026.711-6.677 2.484-1.526 1.64-2.271 3.874-2.099 6.292l.616 8.623c.424 5.933.424 15.588 0 21.521l-.616 8.624c-.172 2.417.573 4.652 2.1 6.292 1.65 1.772 4.03 2.662 6.676 2.484l8.623-.615c2.867-.206 6.688-.318 10.76-.318zm20.07 3.1c-.277 0-.556-.01-.84-.032l-8.623-.614c-2.817-.202-6.584-.312-10.607-.312s-7.79.11-10.607.312l-8.624.614c-3.308.248-6.303-.91-8.398-3.16-1.936-2.078-2.883-4.887-2.668-7.904l.616-8.624c.418-5.85.418-15.365 0-21.214l-.616-8.624c-.215-3.018.732-5.826 2.668-7.904 2.097-2.251 5.091-3.405 8.398-3.16l8.624.614c2.817.2 6.584.313 10.607.313s7.79-.113 10.607-.313l8.624-.615c3.3-.247 6.301.91 8.397 3.16 1.937 2.08 2.884 4.887 2.669 7.905l-.616 8.624c-.418 5.849-.418 15.365 0 21.214l.616 8.624c.215 3.017-.732 5.826-2.67 7.904-1.915 2.058-4.6 3.191-7.558 3.191z" fill="#DADADA"/><path d="M67.48 36.418h-2.142v-4.284h2.143c.59 0 1.07.48 1.07 1.07v2.143c0 .591-.48 1.071-1.07 1.071M3.213 36.418H1.071C.48 36.418 0 35.938 0 35.347v-2.142c0-.592.48-1.071 1.071-1.071h2.142v4.284M32.134 67.48v-2.142h4.284v2.143c0 .59-.48 1.07-1.071 1.07h-2.142c-.592 0-1.071-.48-1.071-1.07M32.134 3.213V1.071c0-.591.48-1.071 1.07-1.071h2.143c.591 0 1.071.48 1.071 1.071v2.142h-4.284" fill="#30404D"/><path d="M34.276 51.589c-9.562 0-17.305-7.751-17.31-17.311.005-9.563 7.748-17.308 17.31-17.31 9.563-.003 17.31 7.747 17.31 17.308 0 9.547-7.747 17.31-17.31 17.313zm0-49.372c-17.705 0-32.06 14.354-32.06 32.059s14.355 32.059 32.06 32.059c17.705 0 32.059-14.354 32.059-32.06 0-17.704-14.354-32.058-32.06-32.058z" fill="#F5F5F5"/><path d="M34.276 2.142V9.64c13.606 0 24.636 11.03 24.636 24.636s-11.03 24.636-24.636 24.636v7.497c17.747 0 32.133-14.386 32.133-32.133 0-17.748-14.386-32.134-32.133-32.134M34.276 51.414c-9.466 0-17.138-7.673-17.138-17.138 0-9.466 7.672-17.138 17.138-17.138V9.64C20.669 9.64 9.64 20.67 9.64 34.276s11.03 24.636 24.636 24.636v-7.498" fill="#E1E7E8"/><path d="M42.83 19.398a17.043 17.043 0 0 0-7.684-2.262l5.59-14.37a32.1 32.1 0 0 1 17.545 10.13l-9.652 12.027a17.044 17.044 0 0 0-5.8-5.525z" fill="#DF5142"/><path d="M47.827 5.117c.13.061.258.125.388.187.711.343 1.418.706 2.113 1.107.694.402 1.362.832 2.015 1.276l.356.243c.651.457 1.286.93 1.893 1.427l.076.064a32.266 32.266 0 0 1 3.613 3.474l-4.782 5.958a24.54 24.54 0 0 0-6.92-5.948 24.54 24.54 0 0 0-8.612-3.02l2.769-7.12c1.622.335 3.232.799 4.815 1.392l.093.034c.734.278 1.462.59 2.183.926z" fill="#C2423D"/><path d="M42.956 49.09a17.057 17.057 0 0 0 5.597-5.23l9.221 12.427a32.105 32.105 0 0 1-7.322 5.79 32.105 32.105 0 0 1-8.675 3.446l-6.152-14.2a17.073 17.073 0 0 0 7.331-2.233z" fill="#DF5142"/><path d="M42.956 49.09a17.057 17.057 0 0 0 5.597-5.23l4.662 6.282a24.572 24.572 0 0 1-6.512 5.442 24.572 24.572 0 0 1-7.968 2.918l-3.11-7.179a17.073 17.073 0 0 0 7.331-2.233z" fill="#C2423D"/><path d="M17.205 34.308c.001-2.68.635-5.206 1.73-7.466L3.564 25.07a32.105 32.105 0 0 0-1.354 9.236c0 3.211.477 6.31 1.354 9.236l15.372-1.773a17.057 17.057 0 0 1-1.73-7.461" fill="#DF5142"/><path d="M17.205 34.308c.001-2.68.635-5.206 1.73-7.466l-7.77-.896a24.572 24.572 0 0 0-1.458 8.36c0 2.935.515 5.749 1.458 8.36l7.77-.897a17.057 17.057 0 0 1-1.73-7.461" fill="#C2423D"/></g><g filter="url(#b)" transform="translate(26.389 23.082)"><path d="M14.886 4.351h16.89c8.024 0 14.529 6.505 14.529 14.53 0 2.07-.443 4.116-1.298 6.001L40.8 34.156a19.183 19.183 0 0 1-34.938 0l-4.207-9.274C-1.66 17.575 1.576 8.964 8.883 5.65a14.529 14.529 0 0 1 6.003-1.298zm8.396 39.498c9.498-.002 17.192-7.766 17.192-17.313 0-9.56-7.694-17.31-17.192-17.308-9.497.002-17.187 7.748-17.193 17.31.006 9.56 7.696 17.311 17.193 17.311z" fill="#000" fill-rule="nonzero" opacity=".299"/><path d="M23.459 25.403c-9.698 0-17.562-2.93-17.562-6.545v8.726c0 3.615 7.864 6.544 17.562 6.544 9.699 0 17.561-2.929 17.561-6.544v-8.726c0 3.616-7.862 6.545-17.561 6.545" fill="#E1E4E1"/><path d="M23.459 28.287v2.907c0 .825-.692 1.482-1.521 1.456-8.987-.287-16.04-3.096-16.04-6.52v1.454c0 3.615 7.863 6.544 17.56 6.544 9.7 0 17.562-2.929 17.562-6.544v-7.272c0 3.44-7.111 6.257-16.152 6.524-.786.023-1.41.67-1.41 1.451" fill="#D3DAD8"/><path d="M40.926 18.923c0 3.618-7.82 6.55-17.467 6.55-9.646 0-17.467-2.932-17.467-6.55 0-3.619 7.82-6.55 17.467-6.55 9.647 0 17.467 2.931 17.467 6.55" stroke="#E1E4E1" stroke-width=".25" fill="#BAC0C2"/><g><path d="M23.459 13.04c-9.698 0-17.562-2.928-17.562-6.544v8.726c0 3.616 7.864 6.545 17.562 6.545 9.699 0 17.561-2.93 17.561-6.545V6.496c0 3.616-7.862 6.545-17.561 6.545" fill="#E1E4E1"/><path d="M23.459 15.925v2.907c0 .825-.692 1.483-1.521 1.456-8.987-.287-16.04-3.096-16.04-6.52v1.454c0 3.616 7.863 6.545 17.56 6.545 9.7 0 17.562-2.93 17.562-6.545V7.951c0 3.438-7.111 6.256-16.152 6.523-.786.023-1.41.67-1.41 1.451" fill="#D3DAD8"/><path d="M39.935 6.55c0 3.619-7.376 6.55-16.476 6.55-9.099 0-16.476-2.931-16.476-6.55C6.983 2.932 14.36 0 23.459 0c9.1 0 16.476 2.932 16.476 6.55" stroke="#E1E4E1" stroke-width="2.25" fill="#C4CBCD"/></g></g><g stroke="#0078D4" stroke-width="4"><rect x="2" y="2" width="96" height="96" rx="48"/></g></g></svg>
